!!!!SEGMENT: pl-kk--kk-i-88--002-001_golabek-jakub--missa-2-kyrie.krn
!!!cenid: 17xx:2575
!!!COM: Gołąbek, Jakub
!!!COM-rismID: pe30008748
!!!CDT: 1739-1789/03/30
!!!CNT: Polish
!!!OPR: Missa 2
!!!OTL: Kyrie
!!!OMV: 001
!!!PDT:
!!!AGN: Sacred; Mass
!!!YEC: Copyright 2022 Narodowy Instytut Fryderyka Chopina (https://polishscores.org)
!!!YEM: License CC-BY-4.0 (https://creativecommons.org/licenses/by/4.0)
!!!SMS-siglum: PL-Kk
!!!SMS-shelfmark: Kk.I.88
!!!SMS-variant:
!!!SMS-altvar:
!!!SMS-shelfwork: 002-001 M
!!!NIFC-rismSourceID: 1001164072
!!!NIFC-rismChildID: 1001164081
!!!NIFC-islandoraID:
!!!URL-pdf-islandora: https://repozytorium.nifc.pl/islandora/object/pl-kk%3A3086/datastream/PDF/view
!!!URL-scan: https://polish.musicsources.pl/pl/lokalizacje/galeria/rekopisy/6148-missa/4 @EN{Scan on Polish Music Sources Website} @PL{Skany w portalu Dziedzictwo Muzyki Polskiej w otwartym dostępie}
!!!IIIF:
!!!ONB-nifc: UWAGA: C - f. 4r-5v; A - f. 12r-13v; T - f. 20r-21v; B - f. 28r-29v; B rip - f. 34r-35v. Proszę uwzględniać B rip. Części Mszy: 1. Kyrie, 2. Christe, 3. Et in terra, 4. Sanctus, 5. Osanna, 6. Benedictus, 7. Agnus Dei.
!!!OMD:
!!!AIN: 1 alto 2 bass 1 canto 1 tenor
!!!key: F
**kern	**text	**kern	**text	**kern	**text	**kern	**text	**dynam	**kern	**text	**dynam
*part5	*part5	*part4	*part4	*part3	*part3	*part2	*part2	*part2	*part1	*part1	*part1
*staff5	*staff5	*staff4	*staff4	*staff3	*staff3	*staff2	*staff2	*	*staff1	*staff1	*
*I"Baſso E ripieno	*	*I"Baſso	*	*I"Tenore	*	*I"Alto	*	*	*I"Canto	*	*
*I'B rip	*	*I'B	*	*I'T	*	*I'A	*	*	*I'S	*	*
*Ibass	*	*Ibass	*	*Itenor	*	*Ialto	*	*	*Icanto	*	*
*ICvox	*	*ICvox	*	*ICvox	*	*ICvox	*	*	*ICvox	*	*
*clefF4	*	*clefF4	*	*clefC4	*	*clefC3	*	*	*clefC1	*	*
*k[b-]	*	*k[b-]	*	*k[b-]	*	*k[b-]	*	*	*k[b-]	*	*
*F:	*	*F:	*	*F:	*	*F:	*	*	*F:	*	*
*M2/2	*	*M2/2	*	*M2/2	*	*M2/2	*	*	*M2/2	*	*
*met(c|)	*	*met(c|)	*	*met(c|)	*	*met(c|)	*	*	*met(c|)	*	*
=1	=1	=1	=1	=1	=1	=1	=1	=1	=1	=1	=1
4.F\	Ky-	4.F\	Ky-	4.A\	Ky-	4.f\	Ky-	.	4.cc\	Ky-	.
8G\	-ri-	8G\	-ri-	8B-\	-ri-	8e\	-ri-	.	8cc\	-ri-	.
4A\	-e	4A\	-e	4c\	-e	4f\	-e	.	4cc\	-e	.
4B-\	e-	4B-\	e-	4d\	e-	4f\	e-	.	4cc\	e-	.
=2	=2	=2	=2	=2	=2	=2	=2	=2	=2	=2	=2
*	*	*	*	*	*	*	*	*	*2\right	*	*
4A\	-lei-	4A\	-lei-	4c\	-lei-	4f\	-lei-	.	2cc\	-lei-	.
4G\	.	4G\	.	4B-\	-son	4g\	.	.	.	.	.
4F\	-son	4F\	-son	4A\	.	4a\	-son	.	4cc\	-son	.
4A\	e-	4A\	e-	4c\	e-	4f\	e-	.	4cc\	e-	.
=3	=3	=3	=3	=3	=3	=3	=3	=3	=3	=3	=3
4G\	-lei-	4G\	-lei-	4B-\	-lei-	4e\	-lei-	.	1cc	-lei-	.
4F\	.	4F\	.	4A\	.	4f\	.	.	.	.	.
4E\	.	4E\	.	4B-\	.	4g\	.	.	.	.	.
4C\	.	4C\	.	4G/	.	4e\	.	.	.	.	.
=4	=4	=4	=4	=4	=4	=4	=4	=4	=4	=4	=4
*2\right	*	*2\right	*	*	*	*2\right	*	*	*	*	*
2F\	-son	2F\	-son.	2A/	-son,	2f\	-son.	.	2cc\	-son	.
4F\	Ky-	4F\	Ky-	4G/	Ky-	4d\	Ky-	.	4bn\	Ky-	.
4F\	-ri-	4F\	-ri-	4G/	-ri-	4d\	-ri-	.	4b\	-ri-	.
=5	=5	=5	=5	=5	=5	=5	=5	=5	=5	=5	=5
!	!	!	!	!	!	!	!	!	!LO:SIC:v:s=2bn\	!	!
2F\	-e	2F\	-e	2G/	-e	2d\	-e	.	2b-\	-e	.
4E\	e-	4E\	e-	2G/	e-	4e\	e-	.	4cc\	e-	.
4C\	.	4C\	.	.	.	4g\	.	.	4ee\	.	.
=6	=6	=6	=6	=6	=6	=6	=6	=6	=6	=6	=6
4BBn/	-lei-	4BBn/	-lei-	2G/	-lei-	4f\	-lei-	.	4dd\	-lei-	.
!	!	!	!	!	!	!	!	!	!LO:SIC:v:s=4bn\	!	!
4GG/	.	4GG/	.	.	.	4d\	.	.	4b-\	.	.
!LO:LB:g=original	!	!	!	!	!	!	!	!	!	!	!
=-	=-	=-	=-	=-	=-	=-	=-	=-	=-	=-	=-
4C/	-son	4C/	-son	4G/	-son	4e\	-son	.	4cc\	-son	.
4E\	e-	4E\	e-	4G/	e-	4g\	e-	.	4cc\	e-	.
!	!	!LO:LB:g=original	!	!LO:LB:g=original	!	!LO:LB:g=original	!	!	!LO:LB:g=original	!	!
=7	=7	=7	=7	=7	=7	=7	=7	=7	=7	=7	=7
*	*	*	*	*2\right	*	*	*	*	*	*	*
4F\	-lei-	4F\	-lei-	2A\	-lei-	1f	-lei-	.	1dd	-lei-	.
4D\	.	4D\	.	.	.	.	.	.	.	.	.
4G\	.	4G\	.	2Bn\	.	.	.	.	.	.	.
4GG/	.	4GG/	.	.	.	.	.	.	.	.	.
=8	=8	=8	=8	=8	=8	=8	=8	=8	=8	=8	=8
2C/	-son	2C/	-son.	2G/	-son	2e\	-son.	.	2cc\	-son.	.
4c\	Ky-	4c\	Ky-	4c\	Ky-	4g\	Ky-	.	4ee\	Ky-	.
4c\	-ri-	4c\	-ri-	4c\	-ri-	4g\	-ri-	.	4ee\	-ri-	.
=9	=9	=9	=9	=9	=9	=9	=9	=9	=9	=9	=9
2c\	-e	2c\	-e	2c\	-e	2g\	-e	.	2ee\	-e	.
2B-X\	e-	2B-X\	e-	2c\	e-	2g\	e-	.	2ee\	e-	.
=10	=10	=10	=10	=10	=10	=10	=10	=10	=10	=10	=10
4A\	-lei-	4A\	-lei-	4c\	-lei-	4f\	-lei-	.	2cc\	-lei-	.
4G\	.	4G\	.	4B-\	.	4g\	.	.	.	.	.
2F\	-son	2F\	-son	2A\	-son	2a\	-son	.	2cc\	-son	.
=11	=11	=11	=11	=11	=11	=11	=11	=11	=11	=11	=11
4BB-/	e-	4BB-/	e-	2.B-\	e-	2.f\	e-	.	2.dd\	e-	.
4C/	.	4C/	.	.	.	.	.	.	.	.	.
4D/	.	4D/	.	.	.	.	.	.	.	.	.
4E/	.	4E/	.	4c\	.	4g\	.	.	4b-\	.	.
=12	=12	=12	=12	=12	=12	=12	=12	=12	=12	=12	=12
4F\	-lei-	4F\	-lei-	4A\	-lei-	4a\	-lei-	.	4cc\	-lei-	.
4G\	.	4G\	.	4B-\	.	4g\	.	.	4b-\	.	.
4A\	.	4A\	.	4c\	.	4f\	.	.	4a\	.	.
4F\	.	4F\	.	4A\	.	4a\	.	.	4cc\	.	.
=13	=13	=13	=13	=13	=13	=13	=13	=13	=13	=13	=13
4B-\	.	4B-\	.	1c	.	2g\	.	.	2b-\	.	.
4G\	.	4G\	.	.	.	.	.	.	.	.	.
4c\	.	4c\	.	.	.	2e\	.	.	2g\	.	.
4C/	.	4C/	.	.	.	.	.	.	.	.	.
!	!	!LO:LB:g=original	!	!	!	!	!	!	!	!	!
=14	=14	=14	=14	=14	=14	=14	=14	=14	=14	=14	=14
2F\	-son	2F\	-son	2c\	-son	2f\	-son.	.	2a\	-son	.
!	!	!	!	!	!	!	!	!LO:DY:a:rj	!	!	!LO:DY:a:t=p&colon;:rj
4c\	Ky-	4c\	Ky-	4c\	Ky-	4g\	Ky-	p	4ee\	Ky-	p
4c\	-ri-	4c\	-ri-	4c\	-ri-	4g\	-ri-	.	4ee\	-ri-	.
!	!	!	!	!LO:LB:g=original	!	!	!	!	!	!	!
=15	=15	=15	=15	=15	=15	=15	=15	=15	=15	=15	=15
2c\	-e	2c\	-e	2c\	-e	2g\	-e	.	2ee\	-e	.
2B-X\	e-	2B-X\	e-	2c\	e-	2g\	e-	.	2ee\	e-	.
!	!	!	!	!	!	!LO:LB:g=original	!	!	!LO:LB:g=original	!	!
=16	=16	=16	=16	=16	=16	=16	=16	=16	=16	=16	=16
4A\	-lei-	4A\	-lei-	4c\	-lei-	4f\	-lei-	.	2cc\	-lei-	.
4G\	.	4G\	.	4B-\	.	4g\	.	.	.	.	.
2F\	-son	2F\	-son	2A\	-son	2a\	-son	.	2cc\	-son	.
=17	=17	=17	=17	=17	=17	=17	=17	=17	=17	=17	=17
!	!	!	!	!	!	!	!	!LO:DY:a:t=fo:rj	!	!	!LO:DY:a:t=fo:rj
4BB-/	e-	4BB-/	e-	2.B-\	e-	2.f\	e-	f	2.dd\	e-	f
4C/	.	4C/	.	.	.	.	.	.	.	.	.
4D/	.	4D/	.	.	.	.	.	.	.	.	.
4E/	.	4E/	.	4c\	.	4g\	.	.	4b-\	.	.
=18	=18	=18	=18	=18	=18	=18	=18	=18	=18	=18	=18
4F\	-lei-	4F\	-lei-	4A\	-lei-	4a\	-lei-	.	4cc\	-lei-	.
4G\	.	4G\	.	4B-\	.	4g\	.	.	4b-\	.	.
4A\	.	4A\	.	4c\	.	4f\	.	.	4a\	.	.
4F\	.	4F\	.	4A\	.	4a\	.	.	4cc\	.	.
=19	=19	=19	=19	=19	=19	=19	=19	=19	=19	=19	=19
4B-\	.	4B-\	.	1c	.	2g\	.	.	2b-\	.	.
4G\	.	4G\	.	.	.	.	.	.	.	.	.
4c\	.	4c\	.	.	.	2e\	.	.	2g\	.	.
4C/	.	4C/	.	.	.	.	.	.	.	.	.
=20	=20	=20	=20	=20	=20	=20	=20	=20	=20	=20	=20
!LO:TX:b:t=Seque Christe\n Vert<.>	!	!	!	!	!	!	!	!	!	!	!
1F	-son	1F	-son	1c	-son	1f	-son	.	1a	-son	.
!LO:PB:g=original	!	!LO:LB:g=original	!	!LO:LB:g=original	!	!LO:LB:g=original	!	!	!LO:LB:g=original	!	!
==;;	==	==;;	==	==;;	==	==;;	==	==	==;;	==	==
*-	*-	*-	*-	*-	*-	*-	*-	*-	*-	*-	*-
!!!system-decoration: [(s1,s2,s3,s4)]s5
!!!ENC: Berenika Jozajtis
!!!END: 2024-02-27
!!!EED: Marta Chmielewska
!!!EEV: 2024-05-02
